app/static/img/title_tail.svg

<svg width="125" height="55" viewBox="0 0 125 55" fill="none" xmlns="http://www.w3.org/2000/svg">
<g clip-path="url(#clip0_84_194)">
<path fill-rule="evenodd" clip-rule="evenodd" d="M68.5698 24.1178C64.6457 28.9897 60.5379 33.6718 56.4244 38.1698C59.4134 40.0449 62.2189 42.1041 65.0186 44.3531C48.2031 52.7797 28.5822 52.2218 12.1397 43.2258C15.5017 42.2882 18.8693 41.1666 21.8584 39.8551C27.2742 37.2322 31.9499 33.6718 36.6199 29.9273C39.4196 27.4942 42.4144 25.0554 45.4034 22.6223C47.4573 20.937 49.7005 19.4358 51.7601 17.7504C51.9437 20.3733 51.5708 22.9962 50.2628 25.4293C56.2408 23.928 62.5975 23.3701 68.5756 24.1178L68.5698 24.1178ZM48.7654 14.19C37.5551 22.0586 27.6528 33.2979 14.9452 37.6061C10.0858 39.2914 5.04291 39.8551 -6.29308e-07 40.6029C24.6638 61.2063 60.9108 59.521 83.5207 36.6686C85.2017 34.7934 87.072 32.924 89.1259 31.2387C99.401 22.8121 112.298 18.688 125 19.6256C119.211 9.69773 109.493 2.95646 98.4659 0.707458C92.6714 -0.603985 82.9413 -0.0575521 74.7372 2.20296C67.847 4.1011 56.7973 8.57035 48.7654 14.1957L48.7654 14.19Z" fill="#BC6C25"/>
<path fill-rule="evenodd" clip-rule="evenodd" d="M21.8584 39.8494C18.8693 41.1609 15.5074 42.2882 12.1397 43.22C28.5822 52.2103 48.2031 52.774 65.0186 44.3474C62.2189 42.0984 59.4134 40.0392 56.4244 38.1641C60.5322 33.6661 64.6457 28.984 68.5699 24.1121C62.5918 23.3644 56.2408 23.9223 50.257 25.4236C51.5651 22.9847 51.938 20.3676 51.7544 17.7447C49.7005 19.4301 47.4573 20.9313 45.3977 22.6166C42.4087 25.0554 39.4196 27.4885 36.6142 29.9216C31.9442 33.6661 27.2685 37.2265 21.8526 39.8494L21.8584 39.8494Z" fill="white"/>
</g>
<defs>
<clipPath id="clip0_84_194">
<rect width="55" height="125" fill="white" transform="translate(0 55) rotate(-90)"/>
</clipPath>
</defs>
</svg>

<?xml version="1.0" encoding="UTF-8" standalone="no"?><!DOCTYPE svg PUBLIC "-//W3C//DTD SVG 1.1//EN" "http://www.w3.org/Graphics/SVG/1.1/DTD/svg11.dtd"><svg width="100%" height="100%" viewBox="0 0 125 55" version="1.1" xmlns="http://www.w3.org/2000/svg" xmlns:xlink="http://www.w3.org/1999/xlink" xml:space="preserve" xmlns:serif="http://www.serif.com/" style="fill-rule:evenodd;clip-rule:evenodd;stroke-linejoin:round;stroke-miterlimit:2;"><g><clipPath id="_clip1"><rect x="-0" y="-0" width="125" height="55"/></clipPath><g clip-path="url(#_clip1)"><path d="M68.57,24.118c-3.924,4.872 -8.032,9.554 -12.146,14.052c2.989,1.875 5.795,3.934 8.595,6.183c-16.816,8.427 -36.437,7.869 -52.879,-1.127c3.362,-0.938 6.729,-2.059 9.718,-3.371c5.416,-2.623 10.092,-6.183 14.762,-9.928c2.8,-2.433 5.794,-4.872 8.783,-7.305c2.054,-1.685 4.297,-3.186 6.357,-4.872c0.184,2.623 -0.189,5.246 -1.497,7.679c5.978,-1.501 12.334,-2.059 18.313,-1.311l-0.006,-0Zm-19.805,-9.928c-11.21,7.869 -21.112,19.108 -33.82,23.416c-4.859,1.685 -9.902,2.249 -14.945,2.997c24.664,20.603 60.911,18.918 83.521,-3.934c1.681,-1.876 3.551,-3.745 5.605,-5.43c10.275,-8.427 23.172,-12.551 35.874,-11.613c-5.789,-9.928 -15.507,-16.67 -26.534,-18.919c-5.795,-1.311 -15.525,-0.765 -23.729,1.496c-6.89,1.898 -17.94,6.367 -25.972,11.993l0,-0.006Z" style="fill:#bc6c25;"/><path d="M21.858,39.849c-2.989,1.312 -6.351,2.439 -9.718,3.371c16.442,8.99 36.063,9.554 52.879,1.127c-2.8,-2.249 -5.606,-4.308 -8.595,-6.183c4.108,-4.498 8.222,-9.18 12.146,-14.052c-5.978,-0.748 -12.329,-0.19 -18.313,1.312c1.308,-2.439 1.681,-5.056 1.497,-7.679c-2.054,1.685 -4.297,3.186 -6.356,4.872c-2.989,2.438 -5.978,4.871 -8.784,7.305c-4.67,3.744 -9.346,7.304 -14.761,9.927l0.005,0Z" style="fill:#fff;"/></g></g></svg>
